X: 32276
T: Pier Of Bowmore
R: slip jig
M: 9/8
K: Dmajor
|:d2 d d2 B AFD|d3 e2 g f2 e|d2 d d2 B AFD|E2 F G2 A B2 A:|
|:FGA D2 A F2 D|FGA D2 =c B2 A|FGA D2 A F2 D|E2 F G2 A B2 A:|

